src/helpers/heroicons/solid/hand-raised.svg

<svg width="24" height="24" viewBox="0 0 24 24" fill="none" xmlns="http://www.w3.org/2000/svg">
<path d="M10.5 1.875C10.5 1.25368 11.0037 0.75 11.625 0.75C12.2463 0.75 12.75 1.25368 12.75 1.875V10.0938C13.2674 10.2561 13.7708 10.4757 14.25 10.7527V3.375C14.25 2.75368 14.7537 2.25 15.375 2.25C15.9963 2.25 16.5 2.75368 16.5 3.375V14.3122C15.0821 14.5501 13.8891 15.451 13.2506 16.6852C14.4554 16.0866 15.8134 15.75 17.25 15.75C17.6642 15.75 18 15.4142 18 15V12.75L18 12.7336C18.0042 11.8771 18.3339 11.0181 18.9885 10.3635C19.4278 9.92417 20.1402 9.92417 20.5795 10.3635C21.0188 10.8028 21.0188 11.5152 20.5795 11.9545C20.361 12.173 20.2514 12.4567 20.25 12.7445L20.25 12.75L20.25 15.75H20.2454C20.1863 17.2558 19.5623 18.6877 18.4926 19.7574L16.7574 21.4926C15.6321 22.6179 14.106 23.25 12.5147 23.25H10.5C6.35786 23.25 3 19.8921 3 15.75V6.375C3 5.75368 3.50368 5.25 4.125 5.25C4.74632 5.25 5.25 5.75368 5.25 6.375V11.8939C5.71078 11.4421 6.2154 11.0617 6.75 10.7527V3.375C6.75 2.75368 7.25368 2.25 7.875 2.25C8.49632 2.25 9 2.75368 9 3.375V9.90069C9.49455 9.80023 9.99728 9.75 10.5 9.75V1.875Z" />
</svg>

<svg xmlns="http://www.w3.org/2000/svg" viewBox="0 0 24 24" fill="currentColor" aria-hidden="true" data-slot="icon">
  <path d="M10.5 1.875a1.125 1.125 0 0 1 2.25 0v8.219c.517.162 1.02.382 1.5.659V3.375a1.125 1.125 0 0 1 2.25 0v10.937a4.505 4.505 0 0 0-3.25 2.373 8.963 8.963 0 0 1 4-.935A.75.75 0 0 0 18 15v-2.266a3.368 3.368 0 0 1 .988-2.37 1.125 1.125 0 0 1 1.591 1.59 1.118 1.118 0 0 0-.329.79v3.006h-.005a6 6 0 0 1-1.752 4.007l-1.736 1.736a6 6 0 0 1-4.242 1.757H10.5a7.5 7.5 0 0 1-7.5-7.5V6.375a1.125 1.125 0 0 1 2.25 0v5.519c.46-.452.965-.832 1.5-1.141V3.375a1.125 1.125 0 0 1 2.25 0v6.526c.495-.1.997-.151 1.5-.151V1.875Z"/>
</svg>
